icons/svg/transport/waterway_fuel.svg

<?xml version="1.0" encoding="UTF-8" standalone="no"?>
<!-- Created with Inkscape (http://www.inkscape.org/) -->

<svg
   xmlns:dc="http://purl.org/dc/elements/1.1/"
   xmlns:cc="http://creativecommons.org/ns#"
   xmlns:rdf="http://www.w3.org/1999/02/22-rdf-syntax-ns#"
   xmlns:svg="http://www.w3.org/2000/svg"
   xmlns="http://www.w3.org/2000/svg"
   xmlns:sodipodi="http://sodipodi.sourceforge.net/DTD/sodipodi-0.dtd"
   xmlns:inkscape="http://www.inkscape.org/namespaces/inkscape"
   version="1.0"
   width="580"
   height="580"
   id="svg2"
   sodipodi:version="0.32"
   inkscape:version="0.91 r"
   sodipodi:docname="waterway_fuel.svg"
   inkscape:output_extension="org.inkscape.output.svg.inkscape">
  <metadata
     id="metadata10">
    <rdf:RDF>
      <cc:Work
         rdf:about="">
        <dc:format>image/svg+xml</dc:format>
        <dc:type
           rdf:resource="http://purl.org/dc/dcmitype/StillImage" />
        <cc:license
           rdf:resource="http://web.resource.org/cc/PublicDomain" />
        <dc:language>en</dc:language>
        <dc:title />
      </cc:Work>
    </rdf:RDF>
  </metadata>
  <sodipodi:namedview
     inkscape:window-height="1006"
     inkscape:window-width="1920"
     inkscape:pageshadow="2"
     inkscape:pageopacity="0.0"
     guidetolerance="10.0"
     gridtolerance="10.0"
     objecttolerance="10.0"
     borderopacity="1.0"
     bordercolor="#666666"
     pagecolor="#ffffff"
     id="base"
     showgrid="false"
     inkscape:zoom="0.35355339"
     inkscape:cx="-145.46196"
     inkscape:cy="375.35027"
     inkscape:window-x="1920"
     inkscape:window-y="0"
     inkscape:current-layer="svg2"
     inkscape:window-maximized="1" />
  <defs
     id="defs4">
    <inkscape:perspective
       sodipodi:type="inkscape:persp3d"
       inkscape:vp_x="0 : 290 : 1"
       inkscape:vp_y="0 : 1000 : 0"
       inkscape:vp_z="580 : 290 : 1"
       inkscape:persp3d-origin="290 : 193.33333 : 1"
       id="perspective12" />
    <style
       type="text/css"
       id="style6">
   
    .fil0 {fill:#EF7900}
   
  </style>
    <inkscape:perspective
       id="perspective6807"
       inkscape:persp3d-origin="29.116032 : 19.410688 : 1"
       inkscape:vp_z="58.232063 : 29.116032 : 1"
       inkscape:vp_y="0 : 1000 : 0"
       inkscape:vp_x="0 : 29.116032 : 1"
       sodipodi:type="inkscape:persp3d" />
    <inkscape:perspective
       id="perspective6954"
       inkscape:persp3d-origin="290 : 193.33333 : 1"
       inkscape:vp_z="580 : 290 : 1"
       inkscape:vp_y="0 : 1000 : 0"
       inkscape:vp_x="0 : 290 : 1"
       sodipodi:type="inkscape:persp3d" />
    <marker
       viewBox="0 0 10 10"
       refY="5"
       refX="10"
       orient="auto"
       markerWidth="4"
       markerUnits="strokeWidth"
       markerHeight="3"
       id="ArrowStart">
      <path
         id="path2295"
         d="M 10 0 L 0 5 L 10 10 z" />
    </marker>
    <marker
       viewBox="0 0 10 10"
       refY="5"
       refX="0"
       orient="auto"
       markerWidth="4"
       markerUnits="strokeWidth"
       markerHeight="3"
       id="ArrowEnd">
      <path
         id="path2292"
         d="M 0 0 L 10 5 L 0 10 z" />
    </marker>
    <inkscape:perspective
       id="perspective7597"
       inkscape:persp3d-origin="178.5405 : 158.483 : 1"
       inkscape:vp_z="357.08099 : 237.7245 : 1"
       inkscape:vp_y="0 : 1000 : 0"
       inkscape:vp_x="0 : 237.7245 : 1"
       sodipodi:type="inkscape:persp3d" />
    <marker
       viewBox="0 0 10 10"
       refY="5"
       refX="10"
       orient="auto"
       markerWidth="4"
       markerUnits="strokeWidth"
       markerHeight="3"
       id="marker8025">
      <path
         id="path8027"
         d="M 10,0 L 0,5 L 10,10 L 10,0 z " />
    </marker>
    <marker
       viewBox="0 0 10 10"
       refY="5"
       refX="0"
       orient="auto"
       markerWidth="4"
       markerUnits="strokeWidth"
       markerHeight="3"
       id="marker8021">
      <path
         id="path8023"
         d="M 0,0 L 10,5 L 0,10 L 0,0 z " />
    </marker>
    <inkscape:perspective
       id="perspective8018"
       inkscape:persp3d-origin="205.96652 : 131.6262 : 1"
       inkscape:vp_z="411.93304 : 197.4393 : 1"
       inkscape:vp_y="0 : 1000 : 0"
       inkscape:vp_x="0 : 197.4393 : 1"
       sodipodi:type="inkscape:persp3d" />
    <inkscape:perspective
       id="perspective8269"
       inkscape:persp3d-origin="99.087723 : 77.339676 : 1"
       inkscape:vp_z="198.17545 : 116.00951 : 1"
       inkscape:vp_y="0 : 1000 : 0"
       inkscape:vp_x="0 : 116.00951 : 1"
       sodipodi:type="inkscape:persp3d" />
  </defs>
  <g
     id="g1327">
    <path
       d="M 66.275,1.768 C 24.94,1.768 1.704,23.139 1.704,66.804 L 1.704,516.927 C 1.704,557.771 22.598,579.156 63.896,579.156 L 515.92,579.156 C 557.227,579.156 578.149,558.84 578.149,516.927 L 578.149,66.804 C 578.149,24.203 557.227,1.768 514.627,1.768 C 514.624,1.768 66.133,1.625 66.275,1.768 z"
       style="fill:#111111;stroke:#eeeeee;stroke-width:3.40799999"
       id="path1329" />
  </g>
  <g
     id="g2319"
     transform="translate(879.29125,36.805119)">
    <path
       id="path2323"
       style="fill:#ffffff;stroke:none"
       d="" />
  </g>
  <g
     id="g2325"
     transform="translate(879.29125,36.805119)">
    <path
       id="path2329"
       style="fill:#ffffff;stroke:none"
       d="" />
  </g>
  <path
     style="fill:#ffffff;fill-opacity:1;fill-rule:evenodd;stroke:none"
     d="m 235.70721,55.328118 c -7.27123,0 -14.51902,5.255255 -14.51902,13.661815 l -0.16073,270.235977 14.94764,0 0.13394,21.37671 137.23421,-0.0804 0.10722,-21.29635 12.85817,0.10711 0,-273.12907 c 10e-6,-5.825673 -3.37452,-10.87587 -9.72399,-10.87587 l -140.87738,0 z m 22.9572,29.868476 89.92686,0 c 4.97891,0 8.89357,2.02774 8.89357,8.89356 l 0,71.041416 c 0,4.81215 -2.57238,8.30424 -8.06315,8.30424 l -90.51618,-0.24107 c -5.22751,0 -9.724,-3.86207 -9.724,-9.48293 l 0.45539,-69.862726 c 0,-5.5922 3.87442,-8.65249 9.02751,-8.65249 z"
     id="path1897"
     inkscape:connector-curvature="0" />
  <path
     d="m 223.88081,148.21379 -23.04974,-0.0813 c -0.0891,55.88423 0.64601,166.16275 0.55097,168.06177 -0.43472,8.68621 -2.62659,12.29042 -3.66089,16.0924 -23.6262,55.17004 -100.950448,30.3616 -91.05863,-22.41558 21.72585,-52.35036 54.47,-103.64461 73.82408,-167.71884 l 1.56325,59.19367 c -13.64523,26.55273 -37.41707,72.96696 -56.08621,111.94724 -7.16237,29.46795 41.23949,47.84632 54.64787,9.21692 5.97522,-67.6183 -0.69044,-137.13201 -0.33697,-211.98622 8.71314,-25.902588 33.23252,-28.382009 42.98938,-27.148272"
     style="fill:#ffffff;fill-opacity:1;fill-rule:evenodd;stroke:none"
     id="path1899"
     inkscape:connector-curvature="0"
     sodipodi:nodetypes="ccscccccccc" />
  <path
     style="color:#000000;font-style:normal;font-variant:normal;font-weight:normal;font-stretch:normal;font-size:medium;line-height:normal;font-family:sans-serif;text-indent:0;text-align:start;text-decoration:none;text-decoration-line:none;text-decoration-style:solid;text-decoration-color:#000000;letter-spacing:normal;word-spacing:normal;text-transform:none;direction:ltr;block-progression:tb;writing-mode:lr-tb;baseline-shift:baseline;text-anchor:start;white-space:normal;clip-rule:nonzero;display:inline;overflow:visible;visibility:visible;opacity:1;isolation:auto;mix-blend-mode:normal;color-interpolation:sRGB;color-interpolation-filters:linearRGB;solid-color:#000000;solid-opacity:1;fill:#ffffff;fill-opacity:1;fill-rule:evenodd;stroke:none;stroke-width:22.65699959;stroke-linecap:butt;stroke-linejoin:miter;stroke-miterlimit:4;stroke-dasharray:none;stroke-dashoffset:0;stroke-opacity:1;color-rendering:auto;image-rendering:auto;shape-rendering:auto;text-rendering:auto;enable-background:accumulate"
     d="m 41.639928,550.72725 c -0.579423,0 -1.147487,-0.0323 -1.721364,-0.048 l 0,-27.96099 c 0.682482,0.1141 1.279575,0.18468 1.721364,0.18468 4.160212,0 19.792705,-5.28148 31.777734,-11.64682 11.934327,-6.3384 21.226971,-12.66759 21.305822,-12.72131 1.340858,-1.07689 9.403756,-7.48893 21.667766,-14.44101 13.3263,-7.55425 30.8865,-15.95441 51.34559,-15.95441 20.45908,0 38.02203,8.40016 51.34834,15.95441 12.54196,7.10965 21.26808,14.06995 22.28669,14.8919 0,0 8.12298,6.18506 19.36616,12.40953 11.24318,6.22447 25.71018,11.50771 33.09847,11.50771 7.38828,0 21.85529,-5.28324 33.09846,-11.50771 11.12085,-6.15674 19.13107,-12.23154 19.30536,-12.36395 -0.10956,0.0907 -0.51115,0.41492 -0.51115,0.41492 l 0.57472,-0.4605 c 0,0 -0.0616,0.0441 -0.0636,0.0456 1.29111,-1.06888 9.67525,-7.89742 21.89436,-14.8991 13.25612,-7.59591 31.01842,-15.99279 51.80148,-15.99279 20.78304,0 38.54537,8.39688 51.80148,15.99279 12.14212,6.95757 19.98223,13.36811 21.35832,14.50575 0,0 8.99631,6.33401 20.75873,12.65896 8.66875,4.66144 19.19987,8.73861 26.22678,10.56993 l 0,28.57019 c -16.53148,-1.49662 -30.8564,-8.89965 -43.10619,-15.48672 -13.69901,-7.36632 -24.09926,-14.72401 -24.09926,-14.72401 l -0.54431,-0.38375 -0.50288,-0.42452 c 0,0 -7.11233,-5.97116 -17.74977,-12.06655 -10.63746,-6.09538 -24.40112,-11.39019 -34.1429,-11.39019 -9.74183,0 -23.50545,5.29481 -34.1429,11.39019 -10.63745,6.09539 -17.74978,12.06655 -17.74978,12.06655 l -0.27906,0.23745 -0.29565,0.22305 c 0,0 -9.81074,7.50663 -23.29797,14.97345 -13.4872,7.46681 -30.54494,15.87526 -50.3343,15.87526 -19.78937,0 -36.84712,-8.40845 -50.33431,-15.87526 -13.48722,-7.46682 -23.29797,-14.97345 -23.29797,-14.97345 l -0.19895,-0.1511 -0.19341,-0.15831 c 0,0 -7.42643,-6.04222 -18.25264,-12.17927 -10.82622,-6.13703 -24.79235,-11.42856 -33.82238,-11.42856 -9.03005,0 -22.99343,5.29153 -33.81962,11.42856 -10.82622,6.13703 -18.25266,12.17927 -18.25266,12.17927 l -0.51116,0.41734 -0.54985,0.37655 c 0,0 -10.66194,7.30212 -24.45568,14.62808 -13.793694,7.32594 -29.683996,15.73615 -48.507915,15.73615 z"
     id="path4241-3-2"
     inkscape:connector-curvature="0" />
  <path
     style="color:#000000;font-style:normal;font-variant:normal;font-weight:normal;font-stretch:normal;font-size:medium;line-height:normal;font-family:sans-serif;text-indent:0;text-align:start;text-decoration:none;text-decoration-line:none;text-decoration-style:solid;text-decoration-color:#000000;letter-spacing:normal;word-spacing:normal;text-transform:none;direction:ltr;block-progression:tb;writing-mode:lr-tb;baseline-shift:baseline;text-anchor:start;white-space:normal;clip-rule:nonzero;display:inline;overflow:visible;visibility:visible;opacity:1;isolation:auto;mix-blend-mode:normal;color-interpolation:sRGB;color-interpolation-filters:linearRGB;solid-color:#000000;solid-opacity:1;fill:#ffffff;fill-opacity:1;fill-rule:evenodd;stroke:none;stroke-width:22.65699959;stroke-linecap:butt;stroke-linejoin:miter;stroke-miterlimit:4;stroke-dasharray:none;stroke-dashoffset:0;stroke-opacity:1;color-rendering:auto;image-rendering:auto;shape-rendering:auto;text-rendering:auto;enable-background:accumulate"
     d="m 41.639928,482.72725 c -0.579423,0 -1.147487,-0.0323 -1.721364,-0.048 l 0,-27.96099 c 0.682482,0.1141 1.279575,0.18468 1.721364,0.18468 4.160212,0 19.792705,-5.28148 31.777734,-11.64682 11.934327,-6.3384 21.226971,-12.66759 21.305822,-12.72131 1.340858,-1.07689 9.403756,-7.48893 21.667766,-14.44101 13.3263,-7.55425 30.8865,-15.95441 51.34559,-15.95441 20.45908,0 38.02203,8.40016 51.34834,15.95441 12.54196,7.10965 21.26808,14.06995 22.28669,14.8919 0,0 8.12298,6.18506 19.36616,12.40953 11.24318,6.22447 25.71018,11.50771 33.09847,11.50771 7.38828,0 21.85529,-5.28324 33.09846,-11.50771 11.12085,-6.15674 19.13107,-12.23154 19.30536,-12.36395 -0.10956,0.0907 -0.51115,0.41492 -0.51115,0.41492 l 0.57472,-0.4605 c 0,0 -0.0616,0.0441 -0.0636,0.0456 1.29111,-1.06888 9.67525,-7.89742 21.89436,-14.8991 13.25612,-7.59591 31.01842,-15.99279 51.80148,-15.99279 20.78304,0 38.54537,8.39688 51.80148,15.99279 12.14212,6.95757 19.98223,13.36811 21.35832,14.50575 0,0 8.99631,6.33401 20.75873,12.65896 8.66875,4.66144 19.19987,8.73861 26.22678,10.56993 l 0,28.57019 c -16.53148,-1.49662 -30.8564,-8.89965 -43.10619,-15.48672 -13.69901,-7.36632 -24.09926,-14.72401 -24.09926,-14.72401 l -0.54431,-0.38375 -0.50288,-0.42452 c 0,0 -7.11233,-5.97116 -17.74977,-12.06655 -10.63746,-6.09538 -24.40112,-11.39019 -34.1429,-11.39019 -9.74183,0 -23.50545,5.29481 -34.1429,11.39019 -10.63745,6.09539 -17.74978,12.06655 -17.74978,12.06655 l -0.27906,0.23745 -0.29565,0.22305 c 0,0 -9.81074,7.50663 -23.29797,14.97345 -13.4872,7.46681 -30.54494,15.87526 -50.3343,15.87526 -19.78937,0 -36.84712,-8.40845 -50.33431,-15.87526 -13.48722,-7.46682 -23.29797,-14.97345 -23.29797,-14.97345 l -0.19895,-0.1511 -0.19341,-0.15831 c 0,0 -7.42643,-6.04222 -18.25264,-12.17927 -10.82622,-6.13703 -24.79235,-11.42856 -33.82238,-11.42856 -9.03005,0 -22.99343,5.29153 -33.81962,11.42856 -10.82622,6.13703 -18.25266,12.17927 -18.25266,12.17927 l -0.51116,0.41734 -0.54985,0.37655 c 0,0 -10.66194,7.30212 -24.45568,14.62808 -13.793694,7.32594 -29.683996,15.73615 -48.507915,15.73615 z"
     id="path4241-3-2-2"
     inkscape:connector-curvature="0" />
</svg>

<svg width="580" height="580" viewBox="0 0 580 580" fill="none" xmlns="http://www.w3.org/2000/svg">
<g clip-path="url(#clip0)">
<path d="M66.2751 1.76863C24.9401 1.76863 1.7041 23.1396 1.7041 66.8046V516.928C1.7041 557.772 22.5981 579.157 63.8961 579.157H515.92C557.227 579.157 578.149 558.841 578.149 516.928V66.8046C578.149 24.2036 557.227 1.76863 514.627 1.76863C514.624 1.76863 66.1331 1.62563 66.2751 1.76863Z" fill="#111111" stroke="#EEEEEE" stroke-width="3.408"/>
<path fill-rule="evenodd" clip-rule="evenodd" d="M235.707 55.3282C228.436 55.3282 221.188 60.5835 221.188 68.99L221.027 339.226H235.975L236.109 360.603L373.343 360.522L373.45 339.226L386.309 339.333V66.204C386.309 60.3783 382.934 55.3281 376.585 55.3281H235.707L235.707 55.3282ZM258.664 85.1967H348.591C353.57 85.1967 357.485 87.2244 357.485 94.0902V165.132C357.485 169.944 354.912 173.436 349.422 173.436L258.905 173.195C253.678 173.195 249.181 169.333 249.181 163.712L249.637 93.8492C249.637 88.257 253.511 85.1967 258.664 85.1967V85.1967Z" fill="white"/>
<path fill-rule="evenodd" clip-rule="evenodd" d="M223.881 148.213L200.831 148.132C200.742 204.016 201.477 314.295 201.382 316.194C200.947 324.88 198.755 328.484 197.721 332.286C174.095 387.456 96.7707 362.648 106.663 309.871C128.388 257.52 161.133 206.226 180.487 142.152L182.05 201.345C168.405 227.898 144.633 274.312 125.964 313.293C118.801 342.761 167.203 361.139 180.612 322.51C186.587 254.891 179.921 185.378 180.275 110.523C188.988 84.6208 213.507 82.1414 223.264 83.3751" fill="white"/>
<path fill-rule="evenodd" clip-rule="evenodd" d="M41.6398 550.727C41.0604 550.727 40.4923 550.694 39.9185 550.679V522.718C40.6009 522.832 41.198 522.902 41.6398 522.902C45.8 522.902 61.4325 517.621 73.4176 511.255C85.3519 504.917 94.6445 498.588 94.7234 498.534C96.0642 497.457 104.127 491.045 116.391 484.093C129.717 476.539 147.278 468.139 167.737 468.139C188.196 468.139 205.759 476.539 219.085 484.093C231.627 491.203 240.353 498.163 241.372 498.985C241.372 498.985 249.495 505.17 260.738 511.395C271.981 517.619 286.448 522.902 293.836 522.902C301.225 522.902 315.692 517.619 326.935 511.395C338.056 505.238 346.066 499.163 346.24 499.031C346.131 499.121 345.729 499.445 345.729 499.445L346.304 498.985C346.304 498.985 346.242 499.029 346.24 499.031C347.531 497.962 355.915 491.133 368.135 484.131C381.391 476.536 399.153 468.139 419.936 468.139C440.719 468.139 458.481 476.536 471.737 484.131C483.88 491.089 491.72 497.5 493.096 498.637C493.096 498.637 502.092 504.971 513.855 511.296C522.523 515.958 533.054 520.035 540.081 521.866V550.436C523.55 548.94 509.225 541.537 496.975 534.95C483.276 527.583 472.876 520.226 472.876 520.226L472.332 519.842L471.829 519.417C471.829 519.417 464.716 513.446 454.079 507.351C443.441 501.255 429.678 495.961 419.936 495.961C410.194 495.961 396.431 501.255 385.793 507.351C375.156 513.446 368.043 519.417 368.043 519.417L367.764 519.655L367.469 519.878C367.469 519.878 357.658 527.384 344.171 534.851C330.683 542.318 313.626 550.727 293.836 550.727C274.047 550.727 256.989 542.318 243.502 534.851C230.015 527.384 220.204 519.878 220.204 519.878L220.005 519.727L219.812 519.568C219.812 519.568 212.385 513.526 201.559 507.389C190.733 501.252 176.767 495.961 167.737 495.961C158.707 495.961 144.743 501.252 133.917 507.389C123.091 513.526 115.664 519.568 115.664 519.568L115.153 519.986L114.603 520.362C114.603 520.362 103.941 527.664 90.1477 534.99C76.354 542.316 60.4637 550.727 41.6398 550.727H41.6398Z" fill="white"/>
<path fill-rule="evenodd" clip-rule="evenodd" d="M41.6398 482.727C41.0604 482.727 40.4923 482.694 39.9185 482.679V454.718C40.6009 454.832 41.198 454.902 41.6398 454.902C45.8 454.902 61.4325 449.621 73.4176 443.255C85.3519 436.917 94.6445 430.588 94.7234 430.534C96.0642 429.457 104.127 423.045 116.391 416.093C129.717 408.539 147.278 400.139 167.737 400.139C188.196 400.139 205.759 408.539 219.085 416.093C231.627 423.203 240.353 430.163 241.372 430.985C241.372 430.985 249.495 437.17 260.738 443.395C271.981 449.619 286.448 454.902 293.836 454.902C301.225 454.902 315.692 449.619 326.935 443.395C338.056 437.238 346.066 431.163 346.24 431.031C346.131 431.121 345.729 431.445 345.729 431.445L346.304 430.985C346.304 430.985 346.242 431.029 346.24 431.031C347.531 429.962 355.915 423.133 368.135 416.131C381.391 408.536 399.153 400.139 419.936 400.139C440.719 400.139 458.481 408.536 471.737 416.131C483.88 423.089 491.72 429.5 493.096 430.637C493.096 430.637 502.092 436.971 513.855 443.296C522.523 447.958 533.054 452.035 540.081 453.866V482.436C523.55 480.94 509.225 473.537 496.975 466.95C483.276 459.583 472.876 452.226 472.876 452.226L472.332 451.842L471.829 451.417C471.829 451.417 464.716 445.446 454.079 439.351C443.441 433.255 429.678 427.961 419.936 427.961C410.194 427.961 396.431 433.255 385.793 439.351C375.156 445.446 368.043 451.417 368.043 451.417L367.764 451.655L367.469 451.878C367.469 451.878 357.658 459.384 344.171 466.851C330.683 474.318 313.626 482.727 293.836 482.727C274.047 482.727 256.989 474.318 243.502 466.851C230.015 459.384 220.204 451.878 220.204 451.878L220.005 451.727L219.812 451.568C219.812 451.568 212.385 445.526 201.559 439.389C190.733 433.252 176.767 427.961 167.737 427.961C158.707 427.961 144.743 433.252 133.917 439.389C123.091 445.526 115.664 451.568 115.664 451.568L115.153 451.986L114.603 452.362C114.603 452.362 103.941 459.664 90.1477 466.99C76.354 474.316 60.4637 482.727 41.6398 482.727L41.6398 482.727Z" fill="white"/>
</g>
<defs>
<clipPath id="clip0">
<path d="M0 0H580V580H0V0Z" fill="white"/>
</clipPath>
</defs>
</svg>
